X: 16228
T: Greensleeves
R: jig
M: 6/8
K: Gmajor
|:g3 gfe|dBG GAB|c2A dcB|cBc A2d|g3 gfe|dBG GAB|cBA def|
|:b3 g2b|a3 f2a|gfg efg|faf d3|b3 gab|aaf d2f|efg agf|1 g3 g2z:|

